Apricity Icons/22/panel/cryptkeeper.svg

<svg xmlns="http://www.w3.org/2000/svg" width="22" height="22" version="1.1">
 <defs>
  <style id="current-color-scheme" type="text/css">
   .ColorScheme-Text { color:#dfdfdf; } .ColorScheme-Highlight { color:#4285f4; }
  </style>
 </defs>
 <g>
  <path style="fill:currentColor" class="ColorScheme-Text" d="M 13.5,3 A 5.5,5.5 0 0 0 8,8.5 5.5,5.5 0 0 0 13.5,14 5.5,5.5 0 0 0 19,8.5 5.5,5.5 0 0 0 13.5,3 Z m 0.322,2.4727 A 2.5,2 45 0 1 15.678,6.3223 2.5,2 45 0 1 16.031,9.5039 2.5,2 45 0 1 12.85,9.1504 2.5,2 45 0 1 12.496,5.9688 2.5,2 45 0 1 13.822,5.4727 Z M 7.2656,10.32 3.293,14.293 A 1.0001,1.0001 0 0 0 3,15 l 0,3 a 1.0001,1.0001 0 0 0 1,1 l 3,0 a 1.0001,1.0001 0 0 0 1,-1 l 0,-2 2,0 a 1.0001,1.0001 0 0 0 1,-1 l 0,-0.504 C 10.227,14.172 9.53,13.702 8.9414,13.121 l -3.4102,3.41 A 0.75063,0.75063 0 0 1 4.4688,15.471 L 7.998,11.941 C 7.6839,11.442 7.4353,10.898 7.2656,10.32 Z"/>
 </g>
</svg>

<svg xmlns="http://www.w3.org/2000/svg" width="22" height="22"><defs><style id="current-color-scheme" type="text/css"></style></defs><path d="M13.5 3A5.5 5.5 0 0 0 8 8.5a5.5 5.5 0 0 0 5.5 5.5A5.5 5.5 0 0 0 19 8.5 5.5 5.5 0 0 0 13.5 3zm.322 2.473a2.5 2 45 0 1 1.856.85 2.5 2 45 0 1 .353 3.18 2.5 2 45 0 1-3.181-.353 2.5 2 45 0 1-.354-3.181 2.5 2 45 0 1 1.326-.496zM7.266 10.32l-3.973 3.973A1 1 0 0 0 3 15v3a1 1 0 0 0 1 1h3a1 1 0 0 0 1-1v-2h2a1 1 0 0 0 1-1v-.504a6.521 6.521 0 0 1-2.059-1.375l-3.41 3.41a.75.75 0 0 1-1.062-1.06l3.529-3.53a6.457 6.457 0 0 1-.732-1.621z" fill="currentColor" color="#dfdfdf"/></svg>
